workspaces/osm/styles/symbols/windmill.svg

<svg xmlns:dc="http://purl.org/dc/elements/1.1/" xmlns:cc="http://creativecommons.org/ns#" xmlns:rdf="http://www.w3.org/1999/02/22-rdf-syntax-ns#" xmlns:svg="http://www.w3.org/2000/svg" xmlns="http://www.w3.org/2000/svg" version="1.1" width="14" height="14" viewBox="0 0 14 14" id="svg2">
  <metadata id="metadata8">
    <rdf:RDF>
      <cc:Work rdf:about="">
        <dc:format>image/svg+xml</dc:format>
        <dc:type rdf:resource="http://purl.org/dc/dcmitype/StillImage"/>
        <dc:title/>
      </cc:Work>
    </rdf:RDF>
  </metadata>
  <defs id="defs6"/>
  <rect width="14" height="14" x="0" y="0" id="canvas" style="fill:none;stroke:none;visibility:hidden"/>
  <path d="M 2.71875,0 1,1.71875 5.96875,6 1,10.28125 2.71875,12 7,7.03125 11.28125,12 13,10.28125 8.03125,6 13,1.71875 11.28125,0 7,4.96875 2.71875,0 z M 7,2 C 6.5846058,2 6.2371923,2.0902004 5.9375,2.21875 L 7,3.4375 8.0625,2.21875 C 7.7644902,2.0832701 7.4104059,2 7,2 z M 7,5.5 C 7.2761424,5.5 7.5,5.7238576 7.5,6 7.5,6.2761424 7.2761424,6.5 7,6.5 6.7238576,6.5 6.5,6.2761424 6.5,6 6.5,5.7238576 6.7238576,5.5 7,5.5 z M 4.1875,5.78125 4.15625,6.25 4.4375,6 4.1875,5.78125 z m 5.625,0 L 9.5625,6 9.84375,6.25 9.8125,5.78125 z M 7,8.5625 3.625,12.46875 3.5,14 10.5,14 10.375,12.46875 7,8.5625 z" id="windmill" />
</svg>

<svg width="14" height="14" version="1.1" viewBox="0 0 14 14" xmlns="http://www.w3.org/2000/svg"><rect id="a" width="14" height="14" fill="none" visibility="hidden"/><path id="b" d="m2.7188 0c-0.57292 0.57292-1.1458 1.1458-1.7188 1.7188 1.6562 1.4271 3.3125 2.8542 4.9688 4.2812-1.6562 1.4271-3.3125 2.8542-4.9688 4.2812 0.57292 0.57292 1.1458 1.1458 1.7188 1.7188 1.4271-1.6562 2.8542-3.3125 4.2812-4.9688 1.4271 1.6562 2.8542 3.3125 4.2812 4.9688l1.7188-1.7188c-1.6562-1.4271-3.3125-2.8542-4.9688-4.2812 1.6562-1.4271 3.3125-2.8542 4.9688-4.2812-0.57292-0.57292-1.1458-1.1458-1.7188-1.7188-1.4271 1.6562-2.8542 3.3125-4.2812 4.9688-1.4271-1.6562-2.8542-3.3125-4.2812-4.9688zm4.2812 2c-0.31376 0.013983-0.90157 0.052927-1.0235 0.26352 0.34116 0.39133 0.68231 0.78265 1.0235 1.174 0.35417-0.40625 0.70833-0.8125 1.0625-1.2188-0.33206-0.15146-0.69858-0.21926-1.0625-0.21875zm0 3.5c0.4061-0.021122 0.66039 0.51812 0.38582 0.81805-0.24077 0.32462-0.81449 0.18216-0.87567-0.21728-0.069756-0.29987 0.18195-0.60883 0.48984-0.60077zm-2.8125 0.28125c-0.010417 0.15625-0.020833 0.3125-0.03125 0.46875 0.09375-0.083333 0.1875-0.16667 0.28125-0.25-0.083333-0.072917-0.16667-0.14583-0.25-0.21875zm5.625 0c-0.057599 0.081748-0.26044 0.16293-0.2204 0.24506 0.07677 0.054348 0.20094 0.20548 0.25034 0.20394-0.0099777-0.14966-0.019955-0.29933-0.029933-0.44899zm-2.8125 2.7812c-1.125 1.3021-2.25 2.6042-3.375 3.9062-0.041667 0.51042-0.083333 1.0208-0.125 1.5312h7c-0.04167-0.51042-0.08333-1.0208-0.125-1.5312-1.125-1.3021-2.25-2.6042-3.375-3.9062z"/></svg>
